svgs/sharp-regular/elevator.svg

<svg xmlns="http://www.w3.org/2000/svg" viewBox="0 0 512 512"><!--! Font Awesome Pro 6.6.0 by @fontawesome - https://fontawesome.com License - https://fontawesome.com/license (Commercial License) Copyright 2024 Fonticons, Inc. --><path d="M64 80l0 16 160 0 0-16L144 0 64 80zm400 96l0 288L48 464l0-288 416 0zM48 128L0 128l0 48L0 464l0 48 48 0 416 0 48 0 0-48 0-288 0-48-48 0L48 128zM368 96l80-80 0-16L288 0l0 16 80 80zM216 352l-112 0L80 432l160 0-24-80zm216 80l-24-80-112 0-24 80 160 0zM208 272a48 48 0 1 0 -96 0 48 48 0 1 0 96 0zm144 48a48 48 0 1 0 0-96 48 48 0 1 0 0 96z"/></svg>

<svg xmlns="http://www.w3.org/2000/svg" viewBox="0 0 512 512"><!--! Font Awesome Pro 6.4.2 by @fontawesome - https://fontawesome.com License - https://fontawesome.com/license (Commercial License) Copyright 2023 Fonticons, Inc. --><path d="M64 80V96H224V80L144 0 64 80zm400 96V464H48V176H464zM48 128H0v48V464v48H48 464h48V464 176 128H464 48zM368 96l80-80V0H288V16l80 80zM216 352H104L80 432H240l-24-80zm216 80l-24-80H296l-24 80H432zM208 272a48 48 0 1 0 -96 0 48 48 0 1 0 96 0zm144 48a48 48 0 1 0 0-96 48 48 0 1 0 0 96z"/></svg>
